images/star.svg

<svg width="8" height="8" viewBox="0 0 8 8" fill="none" xmlns="http://www.w3.org/2000/svg">
<path d="M2.90039 4.36035L0.246094 3.56934L0.650391 2.24219L3.30469 3.22656L3.22559 0.203125H4.57031L4.48242 3.27051L7.09277 2.30371L7.49707 3.63965L4.79883 4.43945L6.53906 6.82129L5.44922 7.64746L3.81445 5.11621L2.23242 7.58594L1.13379 6.78613L2.90039 4.36035Z" fill="#0082C6"/>
</svg>

<svg width="8" height="8" fill="none" xmlns="http://www.w3.org/2000/svg"><path d="M2.9 4.36L.246 3.57.65 2.241l2.655.985-.08-3.024H4.57L4.482 3.27l2.61-.967.405 1.336-2.698.8 1.74 2.381-1.09.826-1.635-2.53-1.582 2.469-1.098-.8L2.9 4.36z" fill="#0082C6"/></svg>
